src/topics/icons/branch.svg

<svg height="256" preserveAspectRatio="xMidYMid" viewBox="0 0 256 256" width="256" xmlns="http://www.w3.org/2000/svg"><path d="m256 127.996353c0-70.5960396-57.422197-127.996353-127.996353-127.996353-70.5741556 0-128.003647 57.4003134-128.003647 127.996353 0 66.693489 51.2729449 121.628266 116.471064 127.471149h.313663c1.069858.092397 2.142148.172637 3.216869.240719l.620031.036472c.972598.058356 1.959785.102123 2.961561.131301h.780511c1.210884 0 2.421769.058356 3.647243.058356 1.225473 0 2.312352 0 3.464881-.051062h.48873c1.016365-.029178 2.027868-.070513 3.034507-.124006h.204245c2.271017-.126438 4.527445-.313663 6.769284-.561676 64.023707-6.944351 114.027411-61.339336 114.027411-127.201253zm-114.46508 115.019461-1.232769-35.400142 30.914034-18.965665c7.234215 4.958507 16.639649 5.435855 24.338711 1.235246 7.699062-4.200608 12.388008-12.367849 12.133721-21.134605-.495499-12.277667-10.335241-22.117409-22.612908-22.612908-6.956008-.24955-13.655608 2.641646-18.245923 7.873982-4.590314 5.232336-6.584847 12.251274-5.43198 19.115618l-21.817809 13.4948-1.582903-44.605784 30.425302-18.608235c10.688471 7.982005 25.569948 7.116032 35.260444-2.051852 9.690497-9.167884 11.379313-23.9785607 4.001512-35.0926901-7.3778-11.1141294-21.682308-15.3080906-33.893363-9.9372488-12.211055 5.3708419-18.786877 18.7486899-15.580874 31.6977189l-20.94247 12.998775-1.240063-35.5970938c9.96419-3.8528211 16.367838-13.6240319 15.923864-24.2979342-.518822-12.4461779-10.1443-22.5995964-22.545078-23.7816359-12.400778-1.1820396-23.771135 6.9700604-26.631983 19.0940887-2.8608493 12.1240284 3.665786 24.4991956 15.286877 28.9854814l-2.26129 73.7545518-22.7952705-14.523322c1.5208547-6.214971.7947996-12.767554-2.0497507-18.498818-4.5590539-9.482832-13.7501068-16.208349-24.2322838-16.864852-12.9635392-.846118-24.8978533 7.06368-29.1690421 19.332593-4.2711887 12.268912.1710713 25.879904 10.8574712 33.267063 10.6863998 7.38716 24.9890582 6.733918 34.9575889-1.596607l31.774783 20.103604-1.911156 62.477276c-56.8969936-7.258014-101.0869922-56.007067-101.0869922-114.880866.043767-63.8559341 51.9950991-115.8218552 115.8583272-115.8218552 63.863229 0 115.814561 51.9513321 115.814561 115.8145602 0 59.289586-44.780852 108.30124-102.283288 115.026756z" fill="#333e48"/><path d="m127.272727 47.1636364c8.323122.0080184 15.068345 6.7532415 15.076364 15.0763636 0 8.3264457-6.749918 15.0763636-15.076364 15.0763636-8.326445 0-15.076363-6.7499179-15.076363-15.0763636s6.749918-15.0763636 15.076363-15.0763636zm56.836364 108.6399996c7.550306-.004059 13.681039 6.100654 13.709091 13.650909.014704 5.537284-3.308393 10.537918-8.419112 12.669178s-11.002091.973221-14.925873-2.933909c-3.923782-3.907129-5.106867-9.793522-2.997362-14.913259 2.109504-5.119738 7.09596-8.464072 12.633256-8.472919zm8.436364-39.709091c-7.997681 3.886239-17.631868.564217-21.534546-7.425454-2.854564-5.857328-1.899451-12.8574811 2.419929-17.7359834 4.319381-4.8785024 11.152298-6.6745021 17.312268-4.5504466 6.159969 2.1240556 10.433744 7.7498201 10.828278 14.253755.394535 6.503936-3.167878 12.60505-9.025929 15.458129zm-128.1854567 4.48c9.5923724.008021 17.3665251 7.782174 17.3745455 17.374546-.0040167 9.589785-7.77991 17.361337-17.369696 17.359998s-17.3635089-7.775062-17.3648478-17.364848 7.7702131-17.365679 17.3599983-17.369696z" fill="#009bde"/></svg>

<?xml version="1.0" encoding="UTF-8"?>
<svg width="256px" height="256px" viewBox="0 0 256 256" version="1.1" xmlns="http://www.w3.org/2000/svg" xmlns:xlink="http://www.w3.org/1999/xlink" preserveAspectRatio="xMidYMid">
    <g>
				<path d="M256,127.996353 C256,57.4003134 198.577803,0 128.003647,0 C57.4294914,0 0,57.4003134 0,127.996353 C0,194.689842 51.2729449,249.624619 116.471064,255.467502 L116.784727,255.467502 C117.854585,255.559899 118.926875,255.640139 120.001596,255.708221 L120.621627,255.744693 C121.594225,255.803049 122.581412,255.846816 123.583188,255.875994 L124.363699,255.875994 C125.574583,255.875994 126.785468,255.93435 128.010942,255.93435 C129.236415,255.93435 130.323294,255.93435 131.475823,255.883288 L131.964553,255.883288 C132.980918,255.85411 133.992421,255.812775 134.99906,255.759282 L135.203305,255.759282 C137.474322,255.632844 139.73075,255.445619 141.972589,255.197606 C205.996296,248.253255 256,193.85827 256,127.996353 Z M141.53492,243.015814 L140.302151,207.615672 L171.216185,188.650007 C178.4504,193.608514 187.855834,194.085862 195.554896,189.885253 C203.253958,185.684645 207.942904,177.517404 207.688617,168.750648 C207.193118,156.472981 197.353376,146.633239 185.075709,146.13774 C178.119701,145.88819 171.420101,148.779386 166.829786,154.011722 C162.239472,159.244058 160.244939,166.262996 161.397806,173.12734 L139.579997,186.62214 L137.997094,142.016356 L168.422396,123.408121 C179.110867,131.390126 193.992344,130.524153 203.68284,121.356269 C213.373337,112.188385 215.062153,97.3777083 207.684352,86.2635789 C200.306552,75.1494495 186.002044,70.9554883 173.790989,76.3263301 C161.579934,81.697172 155.004112,95.07502 158.210115,108.024049 L137.267645,121.022824 L136.027582,85.4257302 C145.991772,81.5729091 152.39542,71.8016983 151.951446,61.127796 C151.432624,48.6816181 141.807146,38.5281996 129.406368,37.3461601 C117.00559,36.1641205 105.635233,44.3162205 102.774385,56.4402488 C99.9135357,68.5642772 106.440171,80.9394444 118.061262,85.4257302 L115.799972,159.180282 L93.0047015,144.65696 C94.5255562,138.441989 93.7995011,131.889406 90.9549508,126.158142 C86.3958969,116.67531 77.204844,109.949793 66.722667,109.29329 C53.7591278,108.447172 41.8248137,116.35697 37.5536249,128.625883 C33.2824362,140.894795 37.7246962,154.505787 48.4110961,161.892946 C59.0974959,169.280106 73.4001543,168.626864 83.368685,160.296339 L115.143468,180.399943 L113.232312,242.877219 C56.3353184,235.619205 12.1453198,186.870152 12.1453198,127.996353 C12.1890868,64.1404189 64.1404189,12.1744978 128.003647,12.1744978 C191.866876,12.1744978 243.818208,64.1258299 243.818208,127.989058 C243.818208,187.278644 199.037356,236.290298 141.53492,243.015814 Z" fill="#333E48"></path>
				<path d="M127.272727,47.1636364 C135.595849,47.1716548 142.341072,53.9168779 142.349091,62.24 C142.349091,70.5664457 135.599173,77.3163636 127.272727,77.3163636 C118.946282,77.3163636 112.196364,70.5664457 112.196364,62.24 C112.196364,53.9135543 118.946282,47.1636364 127.272727,47.1636364 Z M184.109091,155.803636 C191.659397,155.799577 197.79013,161.90429 197.818182,169.454545 C197.832886,174.991829 194.509789,179.992463 189.39907,182.123723 C184.288351,184.254983 178.396979,183.096944 174.473197,179.189814 C170.549415,175.282685 169.36633,169.396292 171.475835,164.276555 C173.585339,159.156817 178.571795,155.812483 184.109091,155.803636 Z M192.545455,116.094545 C184.547774,119.980784 174.913587,116.658762 171.010909,108.669091 C168.156345,102.811763 169.111458,95.8116099 173.430838,90.9331076 C177.750219,86.0546052 184.583136,84.2586055 190.743106,86.382661 C196.903075,88.5067166 201.17685,94.1324811 201.571384,100.636416 C201.965919,107.140352 198.403506,113.241466 192.545455,116.094545 Z M64.3599983,120.574545 C73.9523707,120.582566 81.7265234,128.356719 81.7345438,137.949091 C81.7305271,147.538876 73.9546338,155.310428 64.3648478,155.309089 C54.7750618,155.30775 47.0013389,147.534027 47,137.944241 C46.9986611,128.354455 54.7702131,120.578562 64.3599983,120.574545 Z" fill="#009BDE"></path>
		</g>
</svg>
